X:21
T:THE MACHINE WITHOUT HORSES/HASTE TO THE WEDDING # 3
M:6/8
S:MAY 2002 - PDF FILES R.S.
R:JIG
K:D
A |\
"D" AFA       Aaf | "A7"  ede "D"   fdB | "Bm" AFA      AdF | "Em" EEE "A" E2 A  |!
"D" AFG       Aaf | "A7"  ede "D"   fdB | "G"  AFA "A7" faf | "D"  dddd2   :|!
|: a |\
"D" afa       afa | "G"   bgb       bgb | "D"  afa      agf | "A7" gfgefg   |!
"D" a3  "F#m" f3  | "Bm7" ede "D/A" fdB | "G" AFA  "A7" faf | "D"  dddd2   :|
